X:1
T:Questa mia aurora
T:Questa mia aurora
T:Giovanni Nauwach
T:Source : Libro primo di Arie passeggiate a una voce + BC ---Brescia---1623. Editor : André Vierendeels (30/10/16).
T:Notes : Original clefs : C1, F4 Figures in BC are notated in original print Dotted bracket  indicate ligatures Original note values have been halved
T:Aria
T:©
T:©
C:Giovanni Nauwach
Z:©
%%score 1 2
L:1/8
Q:1/4=120
M:3/4
K:F
V:1 treble nm="Soprano" snm="S"
V:2 bass nm="MusicXML Part"
V:1
 F2 AG AB | c2 c2 d2 | e2 de fe | d2 d2 f2 | _ed cB AB | cB A4 | G6 :: A2 B2 c2 | d2 d2 _e2 | %9
w: Que- sta _ mia'au _|ro- ra c'he|_ mi _ n'a- *|mo- ra, e|dol _ ce'il _ cor _|m'im- * pia-|ga,|quand' el- la|scor- ge Lu-|
w: Ma se _ pie- *|to- sa e|non ri- * * *|tro- sa, ti|ren- * di'al _ mio _|do- * lo-|re,|ciel ter- ra'e|in- fer- no|
w: Se par- * la'o _|ri- de, ar-|de et _ an- *|ci- de, e'in|fe- * re, _ e _|con- * so-|la,|se mi- ra,|e ta- ce|
w: Ah se _ tu _|ni- e- ghi|a tan- * te _|pre- ghi, sa-|nar _ l'al- * ma _|che _ lan-|gue,|in un ba-|le- no io|
w: Deh qui _ t'in- *|vi- 'a- ni-|ma mi- * * *|* a, e|ras- * se- * re- *|na'il _ gior-|no,|nel qual so-|spi- ro s'io|
w: De che _ fa- *|rai quan- do|ch'ha- vra- * * *|* i, mor-|to'il _ tuo _ fi- *|do'a- * man-|te,|cile ter- ra'e|in- fer- no|
 c4 =B2 | c2 c2 A2 | G4 A2 | B3 A Bc | dc de f2 | F2 G4 | !fermata!F6 :| %16
w: ce mi|por- ge, de|l'al- b'as-|sai- * * *||piu va-|ga.|
w: di- ra'in|e- ter- no,|Che in|te _ _ _|sol _ _ _ re-|gn'A- mo-|re.|
w: stem- pra,|e dis- fa-|ce, e'l|al- ma, e'l _|cor _ _ _ in-|vo- *|la.|
w: ven- go|me- no, hor|mai pal-|li- * do _|_ _ _ _ e|san- *|gue|
w: non ti|mi- ro, o|mio bel|sol' _ _ _||a- dor-|no.|
w: di- ra'in|e- ter- no,|Che sei|cru- da _ _|e _ _ _ in-|con- stan-|te.|
V:2
"^BC" F,2 E,2 D,2 | C,4 B,,2 | A,,2 D,2 A,,2 | D,4 B,,2 |"^b" C,2 D,2 _E,2 |"^#" C,2 D,4 | G,,6 :: %7
 F,2 _E,4 | D,4 C,D, |"^6""^-natural" _E,2 F,2 G,2 | C,4 D,2 | _E,2 D,2 C,2 | B,,4 A,,2 | %13
 G,,A,, B,,C, D,2- | D,2 C,4 | !fermata!F,,6 :| %16

